X: 342	% 95
T: Knickle Schottische
S: Viola Ruth "Pioneer Western Folk Tunes" 1948 p.34 #2
R: shotish, hornpipe
Z: 2019 John Chambers <jc:trillian.mit.edu>
M: 4/4
L: 1/8
K: G
V: 1 name="95"
[|\
d2B2 B>AG>B | d2B>d c>BA>B | c2A2 D>FA>G | c2B2 B>AG>B | d2B2 B>AG>B |
d2B>d c>BA2 | f>gf>e d>cB>A | G2g2 g>fg>a || b2d2 d>^cd>^d | e2A2 A>BA2 |
f>gf>e d>=cB>A | G2g2 g>fg>a | b2d2 d>^cd>^d | e2A2 A>BA2 | f2g>e d>cB>A | G2g2 g2z2 |]
